openmetadata-ui/src/main/resources/ui/src/assets/svg/deploy-icon.svg

<svg width="12" height="12" viewBox="0 0 12 12" fill="none" xmlns="http://www.w3.org/2000/svg">
<path d="M11.1538 0.075705L0.292674 6.34163C-0.131459 6.58534 -0.0775638 7.17584 0.344226 7.35393L2.83513 8.39903L9.56737 2.46585C9.69625 2.35103 9.87903 2.52678 9.7689 2.66034L4.12394 9.53787V11.4242C4.12394 11.9772 4.79177 12.1951 5.11983 11.7944L6.60781 9.98309L9.52754 11.2063C9.86028 11.3469 10.2399 11.1383 10.3008 10.7798L11.988 0.656838C12.0677 0.183496 11.5592 -0.158623 11.1538 0.075705Z" fill="white"/>
</svg>

<svg xmlns="http://www.w3.org/2000/svg" width="12" height="12" fill="none"><path fill="#fff" d="M11.154.076.293 6.342a.563.563 0 0 0 .051 1.012l2.491 1.045 6.732-5.933c.13-.115.312.06.202.194L4.124 9.538v1.886c0 .553.668.771.996.37l1.488-1.81 2.92 1.222a.564.564 0 0 0 .773-.426L11.988.657a.562.562 0 0 0-.834-.581Z"/></svg>
